X:567
T:Polska efter Olof Nordblad
T:(SvL Hälsingland 567)
R:Polska
O:Norrala, Hälsingland
S:Olof Nordblad
B:Svenska Låtar Hälsingland
M:3/4
L:1/8
K:G
vG2 BG/B/ dB/d/|gg dd BB|cA/c/ ee cA|FD/F/ AA FD|
GG BG/B/ dB/d/|gg dB/d/ BB|cB/c/ ed/c/ Bc/B/|A(c/A/) G2 G2:|
|:G2 BG/B/ dd|BB B/G/B/d/ cc|AA FF D2|GG BG/B/ dd|BB B/G/B/d/ cc|
AA FA D2|G2 BG/B/ dB/d/|gg dB/d/ BB|cB/c/ ed/c/ Bc/B/|A(c/A/) G2 G2:|

